X: 45
T:Petronella
M:2/4
L:1/16
Q:100
K:D
|:dA|F2AF E2AE|D2D2 D2FA|d2cd e2d2|dcec A2dA|F2AF E2AE|!D2D2 D2FA|d2cd
e 2c 2|d4-d2:|| :dA|F2fd Adaf|g2gf edcB|A2ec Ac2ge|!f2fd AdAF|D2fd
Adaf|g2gf edcB|A2ec A g ec|d4-d2:||
